assets/Taxi/Flat/taxi_flat.svg

<svg width="32" height="32" viewBox="0 0 32 32" fill="none" xmlns="http://www.w3.org/2000/svg">
<path d="M11.5126 11H16.0037L17.0005 10.4805L17.9973 11H23.8218C24.2826 11 24.7025 11.2449 24.9176 11.6327L25.1281 11.9993L25.6393 14.4996L28 17H27.9921C29.101 17 29.99 17.9156 30 19.0346V24.9654C30 26.0946 29.101 27 28.0021 27H3.99786C2.88905 27 2 26.0844 2 24.9654V21.527C2 19.8789 3.06884 18.4344 4.62717 17.9766L7.98358 17H8L9.72049 14.7537L10.2403 12.0016L10.3554 11.7449C10.5602 11.2959 11.0108 11 11.5126 11Z" fill="#F9C23C"/>
<path d="M25.1285 12H18.8464C18.3762 12 18 12.4091 18 12.9205V16.0795C18 16.5909 18.3762 17 18.8464 17H21.0568H28L25.1285 12ZM15.1314 17C15.6139 17 16 16.5909 16 16.0795V12.9318C16 12.4204 15.6139 12.0113 15.1314 12.0113L10.2394 12.0036L8 17H15.1314Z" fill="#26C9FC"/>
<path d="M30 21H29.485C28.6587 21 28 21.6774 28 22.5C28 23.3347 28.6707 24 29.485 24H30V21Z" fill="#F92F60"/>
<path d="M12 26.5C12 28.433 10.433 30 8.50001 30C6.56701 30 5 28.433 5 26.5C5 24.567 6.56701 23 8.50001 23C10.433 23 12 24.567 12 26.5ZM27 26.5C27 28.433 25.433 30 23.5 30C21.567 30 20 28.433 20 26.5C20 24.567 21.567 23 23.5 23C25.433 23 27 24.567 27 26.5Z" fill="#212121"/>
<path d="M10 26.5C10 27.3284 9.32843 28 8.5 28C7.67157 28 7 27.3284 7 26.5C7 25.6716 7.67157 25 8.5 25C9.32843 25 10 25.6716 10 26.5ZM25 26.5C25 27.3284 24.3284 28 23.5 28C22.6716 28 22 27.3284 22 26.5C22 25.6716 22.6716 25 23.5 25C24.3284 25 25 25.6716 25 26.5Z" fill="#D3D3D3"/>
<path d="M14 19H12V21H14V23H16V21H18V23H20V21H22V19H20V21H18V19H16V21H14V19Z" fill="#212121"/>
<path d="M16.877 9H17.1229C17.6066 9 18 9.39345 18 9.87705V11H16V9.87705C16 9.39345 16.3934 9 16.877 9ZM2 21H3.31818C3.69091 21 4 21.3792 4 21.8364V23.1636C4 23.6208 3.7 24 3.31818 24H2V21Z" fill="#D3D3D3"/>
<path d="M10 16.5C10 15.6716 10.6716 15 11.5 15H11.9048C11.9574 15 12 15.0426 12 15.0952V17.9048C12 17.9574 11.9574 18 11.9048 18H11.5C10.6716 18 10 17.3284 10 16.5V16.5Z" fill="#FCD53F"/>
</svg>

<svg xmlns="http://www.w3.org/2000/svg" width="32" height="32" fill="none"><path fill="#F9C23C" d="M11.513 11h4.49l.997-.52.997.52h5.825c.46 0 .88.245 1.096.633l.21.366.511 2.5L28 17h-.008c1.109 0 1.998.916 2.008 2.035v5.93c0 1.13-.899 2.035-1.998 2.035H3.998C2.889 27 2 26.084 2 24.965v-3.438c0-1.648 1.069-3.093 2.627-3.55L7.984 17H8l1.72-2.246.52-2.752.115-.257A1.274 1.274 0 0 1 11.513 11Z"/><path fill="#26C9FC" d="M25.128 12h-6.282c-.47 0-.846.41-.846.92v3.16c0 .51.376.92.846.92H28l-2.872-5Zm-9.997 5c.483 0 .869-.41.869-.92v-3.148c0-.512-.386-.92-.869-.92l-4.892-.008L8 17h7.131Z"/><path fill="#F92F60" d="M30 21h-.515c-.826 0-1.485.677-1.485 1.5 0 .835.67 1.5 1.485 1.5H30v-3Z"/><path fill="#212121" d="M12 26.5a3.5 3.5 0 1 1-7 0 3.5 3.5 0 0 1 7 0Zm15 0a3.5 3.5 0 1 1-7 0 3.5 3.5 0 0 1 7 0Z"/><path fill="#D3D3D3" d="M10 26.5a1.5 1.5 0 1 1-3 0 1.5 1.5 0 0 1 3 0Zm15 0a1.5 1.5 0 1 1-3 0 1.5 1.5 0 0 1 3 0Z"/><path fill="#212121" d="M14 19h-2v2h2v2h2v-2h2v2h2v-2h2v-2h-2v2h-2v-2h-2v2h-2v-2Z"/><path fill="#D3D3D3" d="M16.877 9h.246c.484 0 .877.393.877.877V11h-2V9.877c0-.484.393-.877.877-.877ZM2 21h1.318c.373 0 .682.38.682.836v1.328c0 .457-.3.836-.682.836H2v-3Z"/><path fill="#FCD53F" d="M10 16.5a1.5 1.5 0 0 1 1.5-1.5h.405c.052 0 .095.043.095.095v2.81a.095.095 0 0 1-.095.095H11.5a1.5 1.5 0 0 1-1.5-1.5Z"/></svg>
